X:1553
T:Rolling on the Ryegrass
R:reel
N:"collected from F. O'Neill"
B:"O'Neill's Dance Music of Ireland, 1553"
T: ag liatra.d air an seagal.
Z:transcribed by John B. Walsh, walsh@math.ubc.ca 8/23/96
M:C|
L:1/8
K:Dmix
dB "Segno"|A2(AF) DFAF|G(E{FE}D)E GBdB|BAFA DFAd|BGFG TE2 D2|
FAAF DFAF|(GE{FE}D)E GBdB|BAFA DFAd|BGFG E2 D2||
ABde f2 (fa)|gefd edBd|ABde T(fe)fg|afdf e2 d2|
ABde f2 (fa)|gefd edBd|ABde faab|afdf e2 d2||
A2 (Ac) BAGF|GABc dBAG|FGAc BGGB|AFDF TE2 D2|
FAAc BAGF|GABc dBAG|FGAB defb|afdf e2 d2 "Segno"||


